X:1
T:Title
%%score { 1 | ( 2 3 ) }
L:1/8
M:4/4
K:G
V:1 treble nm="Grand Piano"
V:2 bass 
V:3 bass 
V:1
 z4 z2[Q:1/4=100] D2 | G2 G2 B2 A2 | G6 G2 | G2 B2 [^CA]2 [CG]2 | A6 A2 | B2 c2 d2 F2 | %6
 G2 A2 B2 [Ec]2 | B2 B2 A2 A2 |[M:3/4] [B,G]6 |[M:1/4] D2 |[M:4/4] G2 G2 G2 [FA]2 | [GB]6 [=Fd]2 | %12
 [Ec]2 [EG]2 [Ec]2 [DB]2 | A6 A2 | B2 B2 A2 [DF]2 | [DG]2 [DA]2 [DB]2 [Ec]2 | B2 B2 A2 FA | %17
[M:7/4] [G,B,DG]6 z2 z2 z4 |[M:4/4] [CG]8 | [B,G]8 |] %20
V:2
 z4 z2 [G,B,]2 | [G,B,D]2 [G,B,D]2 [G,D]2 [G,CD]2 | [G,B,D]6 [G,B,D]2 | %3
 [E,A,^C]2 [E,G,C]2 [A,,E,]2 [A,,E,]2 | [D,F,D]6 [D,F,D]2 | [G,D]2 [G,A,D]2 [G,B,D]2 [A,CD]2 | %6
 [G,B,D]2 [F,A,D]2 [G,D]2 [C,G,]2 | [D,G,D]2 [D,G,D]2 [E,G,^C]2 [D,F,=C]2 |[M:3/4] [G,,G,]6 | %9
[M:1/4] [G,B,]2 |[M:4/4] [G,B,D]2 [G,B,D]2 [E,B,E]2 [D,D]2 | [G,D]6 [B,,G,]2 | %12
 [C,G,]2 [C,G,]2 [C,G,]2 [G,,G,]2 | [D,F,D]6 [D,F,D]2 | [G,D]2 [G,D]2 [D,F,D]2 [C,A,]2 | %15
 [B,,G,]2 [A,,F,]2 [G,,G,]2 [C,G,]2 | z4 z2 .A,2 |[M:7/4] G,,6 z2 z2 z4 |[M:4/4] [G,,E,]8 | %19
 [G,,D,]8 |] %20
V:3
 x8 | x8 | x8 | x8 | x8 | x8 | x8 | x8 |[M:3/4] x6 |[M:1/4] x2 |[M:4/4] x8 | x8 | x8 | x8 | x8 | %15
 x8 | [D,G,D]2 [D,G,D]2 [D,F,D]2 [D,D]-[D,CD] |[M:7/4] x14 |[M:4/4] x8 | x8 |] %20

